X: 153
T:Credo Chascun me crie
N: Derived from Jos1301-Credo_Chascun_me_crie.krn
C: Josquin des Prez
%%abc-version 2.0
%%abcx-abcm2ps-target-version 5.9.1 (29 Sep 2008)
%%abc-creator hum2abc beta
%%abcx-conversion-date 2019/02/12 16:15:45
%%abc-edited-by Jesse Rodin
%%abc-edited-by Jesse Rodin; Victoria Chang 2012/01/29
%%abcx-initial-encoding-date 2012/01/29/
%%humdrum-veritas 1453979681
%%humdrum-veritas-data 1681568321
%%linebreak <none>
%%barnumbers 0
L: 1/4
M: 2/1
Q: 1/2=120
%%staves [1 2 3 4]
V: 1 clef=treble
V: 2 clef=treble-8
V: 3 clef=treble-8
V: 4 clef=bass
K: C
[V:1] z8 | 
[V:2] z8 | 
[V:3] B6c2 | 
[V:4] z8 | 
[V:1] z8 | 
[V:2] z8 | 
[V:3] d4e4 | 
[V:4] z8 | 
[V:1] z8 | 
[V:2] B6c2 | 
[V:3] d4d4 | 
[V:4] z8 | 
[V:1] z8 | 
[V:2] d4e4 | 
[V:3] G8- | 
[V:4] z8 | 
[V:1] z8 | 
[V:2] d4d4 | 
[V:3] G8 | 
[V:4] B,6C2 | 
[V:1] z8 | 
[V:2] G8- | 
[V:3] z4g4 | 
[V:4] D4E4 | 
[V:1] B6c2 | 
[V:2] G8 | 
[V:3] g4g4 | 
[V:4] D4D4 | 
[V:1] d4e4 | 
[V:2] z4g4 | 
[V:3] g4G4- | 
[V:4] G,8 | 
[V:1] d4d4 | 
[V:2] g6f2 | 
[V:3] G2A2B4 | 
[V:4] z4G,4 | 
[V:1] G4G4 | 
[V:2] e2d2c4- | 
[V:3] c3defg2- | 
[V:4] C6B,2 | 
[V:1] c6B2 | 
[V:2] c2BAA4 | 
[V:3] g2f3de2- | 
[V:4] A,6G,2 | 
[V:1] A4G4 | 
[V:2] c3defg2- | 
[V:3] edd4cB | 
[V:4] F,4E,4 | 
[V:1] A8 | 
[V:2] g2^fe^f4 | 
[V:3] d2cBA4 | 
[V:4] D,8 | 
[V:1] B6G2 | 
[V:2] g8 | 
[V:3] G8- | 
[V:4] z2G,2B,3C | 
[V:1] G8 | 
[V:2] z2G2B3c | 
[V:3] G8 | 
[V:4] D2E2D2D2 | 
[V:1] z8 | 
[V:2] d2e2d2d2 | 
[V:3] z2G2B3c | 
[V:4] G,8 | 
[V:1] z2G2B3c | 
[V:2] G8 | 
[V:3] d2e2d2d2 | 
[V:4] z8 | 
[V:1] d2e2d2d2 | 
[V:2] g6f2 | 
[V:3] G8 | 
[V:4] z8 | 
[V:1] G4c3B | 
[V:2] e3dcBA2- | 
[V:3] z8 | 
[V:4] z8 | 
[V:1] A2G2A2B2 | 
[V:2] A2B2c2d2 | 
[V:3] z8 | 
[V:4] z8 | 
[V:1] G2d4c2- | 
[V:2] e2f2g2a2- | 
[V:3] z8 | 
[V:4] z8 | 
[V:1] cBAGA4 | 
[V:2] ag^fe^f4 | 
[V:3] z8 | 
[V:4] z8 | 
[V:1] G4z4 | 
[V:2] g8 | 
[V:3] z4B4- | 
[V:4] z4G,4- | 
[V:1] G6G2 | 
[V:2] z4G4- | 
[V:3] B2B2B2B2 | 
[V:4] G,2G,2G,2G,2 | 
[V:1] G4G4 | 
[V:2] G2G2G2G2 | 
[V:3] B4c4 | 
[V:4] E,4E,4 | 
[V:1] F4G4 | 
[V:2] A3Bc4 | 
[V:3] d4e4 | 
[V:4] D,4C,4 | 
[V:1] _B4A2B2- | 
[V:2] d4z2d2- | 
[V:3] d4d4 | 
[V:4] G,4F,2G,2- | 
[V:1] BAA4G2 | 
[V:2] d2c2d3e | 
[V:3] G8 | 
[V:4] G,2A,2_B,4 | 
[V:1] A8 | 
[V:2] f2e2a4- | 
[V:3] c8 | 
[V:4] A,6B,2 | 
[V:1] z8 | 
[V:2] a2gfe4 | 
[V:3] A4A4 | 
[V:4] C2D4C2 | 
[V:1] z8 | 
[V:2] d6cB | 
[V:3] B6AG | 
[V:4] D4G,4 | 
[V:1] z8 | 
[V:2] B3GG2d2 | 
[V:3] G4d4 | 
[V:4] z2D3CB,2 | 
[V:1] c8 | 
[V:2] e6c2 | 
[V:3] c3BAGA2- | 
[V:4] A,2C3B,A,G, | 
[V:1] A4A4 | 
[V:2] c4d4 | 
[V:3] A2G4^F2 | 
[V:4] F,2E,2D,4 | 
[V:1] B6AG | 
[V:2] B4G4 | 
[V:3] G4z2d2 | 
[V:4] z2G,3A,B,2 | 
[V:1] G4d4 | 
[V:2] z2c2d2G2 | 
[V:3] e2g3fd2 | 
[V:4] C3B,G,2B,2 | 
[V:1] c3BAGA2- | 
[V:2] c2F4f2- | 
[V:3] e2f3edc | 
[V:4] A,3G,F,3E, | 
[V:1] A2G4^F2 | 
[V:2] fec2d4 | 
[V:3] d2G2A4 | 
[V:4] D,2E,2D,4 | 
[V:1] G8 | 
[V:2] B6AG | 
[V:3] G8 | 
[V:4] z4B,3C | 
[V:1] z8 | 
[V:2] G8 | 
[V:3] z4B3c | 
[V:4] D2E2D4 | 
[V:1] z8 | 
[V:2] z8 | 
[V:3] d2e2d4 | 
[V:4] G,8 | 
[V:1] z8 | 
[V:2] z8 | 
[V:3] G4z2d2 | 
[V:4] z2D2C3B, | 
[V:1] z8 | 
[V:2] z8 | 
[V:3] c3BA2G2 | 
[V:4] A,2G,2F,2E,2 | 
[V:1] z2d2B2B2 | 
[V:2] z4z2g2 | 
[V:3] A2B2G4 | 
[V:4] D,4z4 | 
[V:1] c3AA4 | 
[V:2] e2e2f3d | 
[V:3] z8 | 
[V:4] z8 | 
[V:1] z2d2e3d | 
[V:2] d4z2g2 | 
[V:3] z8 | 
[V:4] z8 | 
[V:1] c2B2A2G2 | 
[V:2] a3gf2e2 | 
[V:3] z8 | 
[V:4] z8 | 
[V:1] A4B4 | 
[V:2] d2c2d2e2- | 
[V:3] z8 | 
[V:4] z8 | 
[V:1] G4c3B | 
[V:2] ecc4f2- | 
[V:3] z8 | 
[V:4] z8 | 
[V:1] AGA3GFE | 
[V:2] fedcd3c | 
[V:3] z8 | 
[V:4] z8 | 
[V:1] D2G4^F2 | 
[V:2] BAG2A4 | 
[V:3] z8 | 
[V:4] z8 | 
[V:1] G2d4cB | 
[V:2] GABcd2e2 | 
[V:3] z4B3c | 
[V:4] z8 | 
[V:1] A2G2A4 | 
[V:2] f2g4^f2 | 
[V:3] d2e2d4 | 
[V:4] z8 | 
[V:1] z2d4cB | 
[V:2] g2G2d3e | 
[V:3] G8 | 
[V:4] z4B,3C | 
[V:1] A2G2A4 | 
[V:2] f2g4^f2 | 
[V:3] z8 | 
[V:4] D2E2D4 | 
[V:1] G8 | 
[V:2] g4z4 | 
[V:3] z2d2g3f | 
[V:4] G,4z2G,2 | 
[V:1] z8 | 
[V:2] z8 | 
[V:3] e2d2e4 | 
[V:4] C3B,A,2G,2 | 
[V:1] z8 | 
[V:2] z4z2d2 | 
[V:3] f3dd4 | 
[V:4] A,4B,3G, | 
[V:1] z2d2g3f | 
[V:2] g3fe2d2 | 
[V:3] z8 | 
[V:4] G,8 | 
[V:1] e2d2e2f2- | 
[V:2] c2f3ea2- | 
[V:3] z8 | 
[V:4] z8 | 
[V:1] fed4^c2 | 
[V:2] agfde4 | 
[V:3] z8 | 
[V:4] z8 | 
[V:1] d4z2G2 | 
[V:2] d2G2c3B | 
[V:3] z8 | 
[V:4] z8 | 
[V:1] c3BA2G2 | 
[V:2] A2G2F2c2- | 
[V:3] z2G2c3B | 
[V:4] z4z2C,2 | 
[V:1] A6G2 | 
[V:2] c2c3ABc | 
[V:3] AGA2F2G2 | 
[V:4] F,6E,2 | 
[V:1] F2G4^F2 | 
[V:2] d2e2d4 | 
[V:3] A8 | 
[V:4] D,2C,2D,4 | 
[V:1] G8 | 
[V:2] B4c4- | 
[V:3] G4e3f | 
[V:4] E,6C,2 | 
[V:1] z4E3F | 
[V:2] c2c2c2c2 | 
[V:3] g2a2g2g2 | 
[V:4] C,8- | 
[V:1] G2A2G2G2 | 
[V:2] e3fg2e2 | 
[V:3] c3de2cd | 
[V:4] C,8 | 
[V:1] CDEFG3A | 
[V:2] g2cdefg2- | 
[V:3] efg4fe | 
[V:4] z4E,3F, | 
[V:1] B2c4B2 | 
[V:2] g2f2g4- | 
[V:3] d2c2d4 | 
[V:4] G,2A,2G,2G,2 | 
[V:1] c4z2G2 | 
[V:2] g2e2e4 | 
[V:3] c8 | 
[V:4] C,8 | 
[V:1] c3BA2G2 | 
[V:2] z2c2f3e | 
[V:3] z8 | 
[V:4] z8 | 
[V:1] A4B3G | 
[V:2] d2c2d4 | 
[V:3] z4z2G2 | 
[V:4] z8 | 
[V:1] G2G2c3B | 
[V:2] e3cc4 | 
[V:3] c3BAGA2 | 
[V:4] z8 | 
[V:1] A2G2F2A2- | 
[V:2] z2c2c2c2 | 
[V:3] F2G2A4 | 
[V:4] z2C,2F,4- | 
[V:1] AGG4^F2 | 
[V:2] c4d4 | 
[V:3] F2G2A4 | 
[V:4] F,2E,2D,4 | 
[V:1] G8 | 
[V:2] B4e3f | 
[V:3] G8 | 
[V:4] E,6C,2 | 
[V:1] z4E3F | 
[V:2] g2g2g2g2 | 
[V:3] e3fg2g2 | 
[V:4] C,8- | 
[V:1] G2G2G2G2 | 
[V:2] c3defg2- | 
[V:3] g2g2c2e2- | 
[V:4] C,8 | 
[V:1] C2E3FG2- | 
[V:2] gfe4dc | 
[V:3] efg4fe | 
[V:4] z4E,3F, | 
[V:1] G2FED4 | 
[V:2] B3AB4 | 
[V:3] d2G2g4- | 
[V:4] G,2G,2G,2G,2 | 
[V:1] z2G2c4 | 
[V:2] c4z2c2 | 
[V:3] g2e2e4 | 
[V:4] C,8 | 
[V:1] A2A2B3G | 
[V:2] f4d2d2 | 
[V:3] z4z2G2 | 
[V:4] z8 | 
[V:1] G4z4 | 
[V:2] e4c4 | 
[V:3] c4A2A2 | 
[V:4] z2C,2F,4 | 
[V:1] z8 | 
[V:2] z4z2e2 | 
[V:3] B4G2g2 | 
[V:4] D,2D,2E,4 | 
[V:1] z8 | 
[V:2] e2e3dc2 | 
[V:3] g2g3fe2 | 
[V:4] C,4E,3F, | 
[V:1] z8 | 
[V:2] B2c2d4 | 
[V:3] dcc4B2 | 
[V:4] G,2A,2G,2G,2 | 
[V:1] z4G4 | 
[V:2] e8 | 
[V:3] c6B2 | 
[V:4] C,8 | 
[V:1] c6A2 | 
[V:2] c4f4- | 
[V:3] A2G2F4 | 
[V:4] z8 | 
[V:1] A4B4- | 
[V:2] f2d2d4 | 
[V:3] z8 | 
[V:4] z8 | 
[V:1] B2G2G4 | 
[V:2] e6c2 | 
[V:3] G4c4- | 
[V:4] z4C,4 | 
[V:1] z8 | 
[V:2] c4c4 | 
[V:3] c2A2A4 | 
[V:4] F,6D,2 | 
[V:1] z4z2G2- | 
[V:2] d4G4 | 
[V:3] B6G2 | 
[V:4] D,4E,4- | 
[V:1] GFEDE4 | 
[V:2] g8- | 
[V:3] G4c4 | 
[V:4] E,2C,2C,4 | 
[V:1] D8 ||  
[V:2] g8 ||  
[V:3] B8 ||  
[V:4] G,8 ||  
[V:1]  [K:C] [K:clef=treble][M:2/1]z8 | 
[V:2]  [K:C] [K:clef=treble-8][M:2/1]G4B2B2 | 
[V:3]  [K:C] [K:clef=treble-8][M:2/1]z8 | 
[V:4]  [K:C] [K:clef=bass][M:2/1]z8 | 
[V:1] z4G4 | 
[V:2] B3GG4 | 
[V:3] G4B2B2 | 
[V:4] z8 | 
[V:1] B2B2B3G | 
[V:2] z8 | 
[V:3] B3GG4 | 
[V:4] G,4B,2B,2 | 
[V:1] G4z2d2 | 
[V:2] z4z2d2 | 
[V:3] z8 | 
[V:4] B,3G,G,4 | 
[V:1] c3BA2^G2 | 
[V:2] e3dc2B2 | 
[V:3] z8 | 
[V:4] z4z2D2 | 
[V:1] A4z4 | 
[V:2] A4z2d2 | 
[V:3] z4z2g2 | 
[V:4] C3B,A,2G,2 | 
[V:1] z8 | 
[V:2] c3BA2G2 | 
[V:3] f3ed2^c2 | 
[V:4] A,3G,F,2E,2 | 
[V:1] z2d2A2B2 | 
[V:2] A4z4 | 
[V:3] d2d2d2d2 | 
[V:4] D,8 | 
[V:1] c3BAGA2- | 
[V:2] z8 | 
[V:3] A2c3BAG | 
[V:4] z8 | 
[V:1] A2G4^F2 | 
[V:2] z8 | 
[V:3] F2G2A4 | 
[V:4] z8 | 
[V:1] G2B4B2 | 
[V:2] z2d4d2 | 
[V:3] G2g4g2 | 
[V:4] z2G,4G,2 | 
[V:1] B2B2B2B2 | 
[V:2] d2d2d2d2 | 
[V:3] g2g2g2g2 | 
[V:4] G,2G,2G,2G,2 | 
[V:1] A8 | 
[V:2] d8 | 
[V:3] f8 | 
[V:4] D,8 | 
[V:1] z8 | 
[V:2] G4B2B2 | 
[V:3] z8 | 
[V:4] z8 | 
[V:1] z4G4 | 
[V:2] B3GG4 | 
[V:3] G4B2B2 | 
[V:4] z8 | 
[V:1] B2B2B3G | 
[V:2] z8 | 
[V:3] B3GG4 | 
[V:4] G,4B,2B,2 | 
[V:1] G4z2d2 | 
[V:2] z4z2d2 | 
[V:3] z8 | 
[V:4] B,3G,G,4 | 
[V:1] c3BA2^G2 | 
[V:2] e3dc2B2 | 
[V:3] z8 | 
[V:4] z4z2D2 | 
[V:1] A4z4 | 
[V:2] A4z2d2 | 
[V:3] z4z2g2 | 
[V:4] C3B,A,2G,2 | 
[V:1] z8 | 
[V:2] c3BA2G2 | 
[V:3] f3ed2^c2 | 
[V:4] A,3G,F,2E,2 | 
[V:1] z2d2A2B2 | 
[V:2] A2f2f2f2 | 
[V:3] d2d2d2d2 | 
[V:4] D,8 | 
[V:1] c3BAGA2- | 
[V:2] g3fede2- | 
[V:3] e3dcBc2- | 
[V:4] z8 | 
[V:1] A2G4^F2 | 
[V:2] e2d4c2 | 
[V:3] cBAGA4 | 
[V:4] z8 | 
[V:1] G8 | 
[V:2] d4B3c | 
[V:3] G8- | 
[V:4] z8 | 
[V:1] z8 | 
[V:2] d2e2d2d2 | 
[V:3] G8 | 
[V:4] z4B,3C | 
[V:1] z8 | 
[V:2] G3ABcd2- | 
[V:3] z8 | 
[V:4] D2E2D2D2 | 
[V:1] z8 | 
[V:2] defga2g2 | 
[V:3] z8 | 
[V:4] G,2D2C3B, | 
[V:1] z8 | 
[V:2] f2g3^f^fe | 
[V:3] z8 | 
[V:4] A,2G,2A,2A,2 | 
[V:1] z2B2A2c2 | 
[V:2] g4z4 | 
[V:3] z2G2A2A2 | 
[V:4] G,4z4 | 
[V:1] B2G2G2^F2 | 
[V:2] z8 | 
[V:3] G2B2A2A2 | 
[V:4] z8 | 
[V:1] G4z4 | 
[V:2] z2B2A2c2 | 
[V:3] G4z4 | 
[V:4] z2G,2A,2A,2 | 
[V:1] z8 | 
[V:2] B2G2G2^F2 | 
[V:3] z8 | 
[V:4] G,2B,2A,2A,2 | 
[V:1] z2B2A2c2 | 
[V:2] G2d3cA2 | 
[V:3] z2G2A2A2 | 
[V:4] G,2G,2F,2F,2 | 
[V:1] B2G2G2^F2 | 
[V:2] B2c2d3c | 
[V:3] G4A4 | 
[V:4] G,2E,2D,4 | 
[V:1] G4B2c2 | 
[V:2] BAG4FE | 
[V:3] G4d2e2 | 
[V:4] z8 | 
[V:1] d2d2d2d2 | 
[V:2] D2G2B4 | 
[V:3] f2g3fd2 | 
[V:4] z8 | 
[V:1] c3decf2- | 
[V:2] A4G2F2 | 
[V:3] e2f2g2a2 | 
[V:4] z8 | 
[V:1] fed4^c2 | 
[V:2] _B4A4 | 
[V:3] d4e4 | 
[V:4] z8 | 
[V:1] [M:3/3](3:2:1d12 | 
[V:2] [M:3/3](3_B4G4d4 | 
[V:3] [M:3/3](3:2:2d8z4 | 
[V:4] [M:3/3](3:2:2G,8G,4 | 
[V:1] (3:2:1z12 | 
[V:2] (3d4B4c4 | 
[V:3] z8 | 
[V:4] (3F,4G,4E,4 | 
[V:1] (3z4z4d4 | 
[V:2] (3:2:2d8g4 | 
[V:3] (3z4z4G4 | 
[V:4] (3D,4G,6A,2 | 
[V:1] (3d4B4c4 | 
[V:2] (3f4g4e4 | 
[V:3] (3d4d4c4 | 
[V:4] (3B,4G,4A,4 | 
[V:1] [M:2/1]d2A2B2A2 | 
[V:2] [M:2/1](3d4z4z4 | 
[V:3] [M:2/1]f3ed2c2 | 
[V:4] [M:2/1]D,3E,F,G,A,F, | 
[V:1] B4A4 | 
[V:2] [M:2/1]d3efgaf | 
[V:3] B2G2d3c | 
[V:4] G,4D,4 | 
[V:1] G2F2G2A2 | 
[V:2] g2a2d4- | 
[V:3] B2A2B2A2 | 
[V:4] G,2D,2G,2F,2 | 
[V:1] D3EFGA^F | 
[V:2] d8 | 
[V:3] B2G2A4 | 
[V:4] G,4D,4 | 
[V:1] G4z4 | 
[V:2] z4e2f2 | 
[V:3] G4B2c2 | 
[V:4] z2G,4A,2 | 
[V:1] z8 | 
[V:2] g2g2g2g2 | 
[V:3] d2d2d2d2 | 
[V:4] B,2B,2B,2B,2 | 
[V:1] z8 | 
[V:2] f3gaf_b2- | 
[V:3] c3de2f2- | 
[V:4] A,3B,C2D2- | 
[V:1] z8 | 
[V:2] bag4^f2 | 
[V:3] fed4c2 | 
[V:4] D2B,2A,4 | 
[V:1] z4B2c2 | 
[V:2] g2d4e2 | 
[V:3] d4G4 | 
[V:4] G,8 | 
[V:1] d2d2d2d2 | 
[V:2] f2d2f3g | 
[V:3] A8 | 
[V:4] D,8 | 
[V:1] c3decf2- | 
[V:2] edcBA2a2- | 
[V:3] z2A2c2A2 | 
[V:4] A,8- | 
[V:1] fed4^c2 | 
[V:2] a2f2e4 | 
[V:3] c2d2e4 | 
[V:4] A,8 | 
[V:1] d4z4 | 
[V:2] d4G4 | 
[V:3] f4g4 | 
[V:4] z2D,2E,2F,2 | 
[V:1] z8 | 
[V:2] z8 | 
[V:3] z2G2A2B2 | 
[V:4] G,2E,2F,2G,2 | 
[V:1] z8 | 
[V:2] z8 | 
[V:3] c2A2B2c2 | 
[V:4] A,2F,2G,2A,2 | 
[V:1] z2d4d2 | 
[V:2] z2d4d2 | 
[V:3] d3ef2g2 | 
[V:4] _B,6A,G, | 
[V:1] d2d2d4 | 
[V:2] d2d2d4 | 
[V:3] f2g2f2g2 | 
[V:4] _B,2G,2B,4 | 
[V:1] c4c2B2 | 
[V:2] e2a4g2 | 
[V:3] a2f2e4 | 
[V:4] A,8 | 
[V:1] A2G2F2E2 | 
[V:2] f2e2d2^c2 | 
[V:3] z8 | 
[V:4] z8 | 
[V:1] D4z4 | 
[V:2] d4z4 | 
[V:3] z2f4e2 | 
[V:4] z2D4C2 | 
[V:1] z8 | 
[V:2] z8 | 
[V:3] d2c2B2A2 | 
[V:4] B,2A,2G,2^F,2 | 
[V:1] d6c2 | 
[V:2] z4g4- | 
[V:3] G8 | 
[V:4] G,8 | 
[V:1] B2A2G2F2 | 
[V:2] g2f2e2d2 | 
[V:3] z8 | 
[V:4] z8 | 
[V:1] G4A4 | 
[V:2] c2B2c2f2 | 
[V:3] z4z2A2 | 
[V:4] z4F,4 | 
[V:1] G4E4 | 
[V:2] edd4c2 | 
[V:3] B4c4 | 
[V:4] G,4A,4 | 
[V:1] F8- | 
[V:2] d2A2_B4 | 
[V:3] A4z2d2- | 
[V:4] D,8- | 
[V:1] F8- | 
[V:2] A4z2d2- | 
[V:3] dcA2_B4 | 
[V:4] D,8- | 
[V:1] F8- | 
[V:2] dcA2_B4 | 
[V:3] A4d4 | 
[V:4] D,8- | 
[V:1] F8 ||  
[V:2] A8 ||  
[V:3] d8 ||  
[V:4] D,8 ||  
[V:1]  [K:C] [K:clef=treble][M:2/1]z8 | 
[V:2]  [K:C] [K:clef=treble-8][M:2/1]z8 | 
[V:3]  [K:C] [K:clef=treble-8][M:2/1]B6c2 | 
[V:4]  [K:C] [K:clef=bass][M:2/1]z8 | 
[V:1] z8 | 
[V:2] z8 | 
[V:3] d4e4 | 
[V:4] z8 | 
[V:1] z8 | 
[V:2] z2d2e2f2 | 
[V:3] d2B2c2d2 | 
[V:4] z4z2D,2 | 
[V:1] z4z2d2 | 
[V:2] g4z2d2 | 
[V:3] G4B4 | 
[V:4] E,2F,2G,4 | 
[V:1] c3BA2^G2 | 
[V:2] e3dc2B2 | 
[V:3] A4z2d2 | 
[V:4] z4z2D2 | 
[V:1] A4z2d2 | 
[V:2] ABcdefg2 | 
[V:3] e3dc2B2 | 
[V:4] C3B,A,2G,2 | 
[V:1] cBAGA2B2- | 
[V:2] e2f3ed2- | 
[V:3] A4d4 | 
[V:4] A,2F,2D,4 | 
[V:1] BAG4^F2 | 
[V:2] d2c2d4 | 
[V:3] G4A4 | 
[V:4] E,4D,4 | 
[V:1] G8 | 
[V:2] [M:3/3](3B4B4B4 | 
[V:3] [M:3/3](3:2:2G8z4 | 
[V:4] [M:3/3](3:2:1z12 | 
[V:1] z8 | 
[V:2] (3:2:2G8G4 | 
[V:3] (3B4B4B4 | 
[V:4] (3:2:1z12 | 
[V:1] z8 | 
[V:2] (3d4e4d4 | 
[V:3] (3:2:2G8G4 | 
[V:4] (3B,4B,4B,4 | 
[V:1] z8 | 
[V:2] (3:2:2B8z4 | 
[V:3] (3:2:2d8d4 | 
[V:4] (3G,6A,2B,4 | 
[V:1] z8 | 
[V:2] (3:2:1z12 | 
[V:3] (3e6d2c4 | 
[V:4] (3C6B,2A,4 | 
[V:1] z8 | 
[V:2] (3:2:1z12 | 
[V:3] (3:2:2B4A8 | 
[V:4] (3G,4^F,6E,2 | 
[V:1] z4z2B2 | 
[V:2] [M:2/1]z4z2g2 | 
[V:3] [M:2/1]G8 | 
[V:4] [M:2/1]G,8 | 
[V:1] B2A2B2c2 | 
[V:2] g2f2g2e2 | 
[V:3] z8 | 
[V:4] z8 | 
[V:1] d8 | 
[V:2] d4G4 | 
[V:3] z4z2B2 | 
[V:4] z4z2G,2 | 
[V:1] z4d2e2 | 
[V:2] z4z2g2 | 
[V:3] B2A2B2c2 | 
[V:4] G,2F,2G,2E,2 | 
[V:1] f2d4^c2 | 
[V:2] f4e4 | 
[V:3] d4z2A2 | 
[V:4] D,4z4 | 
[V:1] d4z2c2 | 
[V:2] d4z4 | 
[V:3] B4A4 | 
[V:4] z8 | 
[V:1] B4A4 | 
[V:2] z8 | 
[V:3] G2B2c2d2- | 
[V:4] z2G,2F,4 | 
[V:1] G2c3Ad2- | 
[V:2] z2g2f4 | 
[V:3] d^c^cBd4 | 
[V:4] E,4D,4 | 
[V:1] d2^c2d4 | 
[V:2] e4d4 | 
[V:3] z4z2B2 | 
[V:4] z4z2G,2 | 
[V:1] z8 | 
[V:2] z8 | 
[V:3] B2A2B2c2 | 
[V:4] G,2F,2G,2E,2 | 
[V:1] z4z2B2 | 
[V:2] z4z2g2 | 
[V:3] d8 | 
[V:4] D,4G,4 | 
[V:1] B2A2B2c2 | 
[V:2] g2f2g2e2 | 
[V:3] z8 | 
[V:4] z8 | 
[V:1] d4d2c2 | 
[V:2] d4z4 | 
[V:3] z2f4e2 | 
[V:4] z8 | 
[V:1] BAA4^G2 | 
[V:2] z8 | 
[V:3] d2c2B4 | 
[V:4] z8 | 
[V:1] [M:3/3](3:2:2A8A4 | 
[V:2] [M:3/3](3f4f4f4 | 
[V:3] A4z4 | 
[V:4] [M:3/3](3D,6E,2F,4 | 
[V:1] (3:2:2B8B4 | 
[V:2] (3:2:2d8d4 | 
[V:3] [M:3/3](3G6A2B4 | 
[V:4] (3G,4G,4G,4 | 
[V:1] (3G6A2B4 | 
[V:2] (3e4g6f2 | 
[V:3] (3c4e4d4 | 
[V:4] (3E,6F,2G,4 | 
[V:1] (3:2:4c6B2A2G2 | 
[V:2] (3:2:4e2d2c6A2 | 
[V:3] (3c4A4c4 | 
[V:4] (3A,6G,2F,4 | 
[V:1] (3:2:2G8^F4 | 
[V:2] (3B2c2d8 | 
[V:3] (3:2:2G4A8 | 
[V:4] (3:2:2E,4D,8 | 
[V:1] [M:2/1]G4z2d2 | 
[V:2] [M:2/1]z2B2c2d2 | 
[V:3] [M:2/1]G4z4 | 
[V:4] [M:2/1]z2D2C2B,2 | 
[V:1] c3BA2G2 | 
[V:2] e2c2d2e2 | 
[V:3] z4z2g2 | 
[V:4] A,3G,F,2E,2 | 
[V:1] A3GA2B2 | 
[V:2] f2d4f2- | 
[V:3] f3edcd2- | 
[V:4] D,8- | 
[V:1] AGG4^F2 | 
[V:2] fedcd4 | 
[V:3] d2B2A4 | 
[V:4] D,8 | 
[V:1] G8- | 
[V:2] z2d3cBA | 
[V:3] G8- | 
[V:4] G,8- | 
[V:1] G8 |]  
[V:2] B8 |]  
[V:3] G8 |]  
[V:4] G,8 |]  



